X: 100452
M: 3/4
L: 1/8
P: 2nd time, 8va.
K: G
|:\
c6 | B6 | (E6 | F4D2) | G6- | G6 | (d4^c2) | (=c4A2) |\
c6 | B6 | (A4^A2 | B4D2) | G6- | G4 :||: uD2 | BBbbbb |
ddd'd'd'd' | ddd'd'd'd' | d'4c'2 | (c'f)fffc' | (be)eeeb | (ad)ddda |[1 g2z2 :|[2 g2d2c2 "_D.C."|]


